icons/svg/barrier_colored/cycle_barrier2.svg

<?xml version="1.0" encoding="UTF-8" standalone="no"?>
<!-- Created with Inkscape (http://www.inkscape.org/) -->

<svg
   xmlns:dc="http://purl.org/dc/elements/1.1/"
   xmlns:cc="http://creativecommons.org/ns#"
   xmlns:rdf="http://www.w3.org/1999/02/22-rdf-syntax-ns#"
   xmlns:svg="http://www.w3.org/2000/svg"
   xmlns="http://www.w3.org/2000/svg"
   xmlns:sodipodi="http://sodipodi.sourceforge.net/DTD/sodipodi-0.dtd"
   xmlns:inkscape="http://www.inkscape.org/namespaces/inkscape"
   version="1.0"
   width="580"
   height="580"
   id="svg2"
   sodipodi:version="0.32"
   inkscape:version="0.48.4 r9939"
   sodipodi:docname="cycle_barrier2.svg"
   inkscape:output_extension="org.inkscape.output.svg.inkscape">
  <metadata
     id="metadata2975">
    <rdf:RDF>
      <cc:Work
         rdf:about="">
        <dc:format>image/svg+xml</dc:format>
        <dc:type
           rdf:resource="http://purl.org/dc/dcmitype/StillImage" />
        <cc:license
           rdf:resource="http://web.resource.org/cc/PublicDomain" />
        <dc:language>en</dc:language>
        <dc:title />
      </cc:Work>
    </rdf:RDF>
  </metadata>
  <sodipodi:namedview
     inkscape:window-height="739"
     inkscape:window-width="1326"
     inkscape:pageshadow="2"
     inkscape:pageopacity="0.0"
     guidetolerance="10.0"
     gridtolerance="10.0"
     objecttolerance="10.0"
     borderopacity="1.0"
     bordercolor="#666666"
     pagecolor="#ffffff"
     id="base"
     inkscape:zoom="0.92167712"
     inkscape:cx="219.2115"
     inkscape:cy="219.75415"
     inkscape:window-x="40"
     inkscape:window-y="1024"
     inkscape:current-layer="svg2"
     showgrid="false"
     inkscape:window-maximized="1" />
  <defs
     id="defs4">
    <inkscape:perspective
       sodipodi:type="inkscape:persp3d"
       inkscape:vp_x="0 : 290 : 1"
       inkscape:vp_y="0 : 1000 : 0"
       inkscape:vp_z="580 : 290 : 1"
       inkscape:persp3d-origin="290 : 193.33333 : 1"
       id="perspective2441" />
    <inkscape:perspective
       id="perspective3452"
       inkscape:persp3d-origin="30 : 20 : 1"
       inkscape:vp_z="60 : 30 : 1"
       inkscape:vp_y="0 : 1000 : 0"
       inkscape:vp_x="0 : 30 : 1"
       sodipodi:type="inkscape:persp3d" />
    <symbol
       viewBox="244.5 110 489 219.9"
       id="symbol-university">
      <path
         id="path4460"
         d="M79,43l57,119c0,0,21-96,104-96s124,106,124,106l43-133l82-17L0,17L79,43z" />
      <path
         id="path4462"
         d="M94,176l-21,39"
         stroke-width="20"
         stroke="#000000"
         fill="none" />
      <path
         id="path4464"
         d="M300,19c0,10.5-22.6,19-50.5,19S199,29.5,199,19s22.6-19,50.5-19S300,8.5,300,19z" />
      <path
         id="path4466"
         d="M112,216l-16-38L64,88c0,0-9-8-4-35s16-24,16-24"
         stroke-width="20"
         stroke="#000000"
         ill="none" />
    </symbol>
    <inkscape:perspective
       id="perspective4471"
       inkscape:persp3d-origin="372.04724 : 350.78739 : 1"
       inkscape:vp_z="744.09448 : 526.18109 : 1"
       inkscape:vp_y="0 : 1000 : 0"
       inkscape:vp_x="0 : 526.18109 : 1"
       sodipodi:type="inkscape:persp3d" />
    <inkscape:perspective
       id="perspective4668"
       inkscape:persp3d-origin="6 : 4 : 1"
       inkscape:vp_z="12 : 6 : 1"
       inkscape:vp_y="0 : 1000 : 0"
       inkscape:vp_x="0 : 6 : 1"
       sodipodi:type="inkscape:persp3d" />
    <inkscape:perspective
       id="perspective5915"
       inkscape:persp3d-origin="0.5 : 0.33333333 : 1"
       inkscape:vp_z="1 : 0.5 : 1"
       inkscape:vp_y="0 : 1000 : 0"
       inkscape:vp_x="0 : 0.5 : 1"
       sodipodi:type="inkscape:persp3d" />
    <inkscape:perspective
       id="perspective6076"
       inkscape:persp3d-origin="0.5 : 0.33333333 : 1"
       inkscape:vp_z="1 : 0.5 : 1"
       inkscape:vp_y="0 : 1000 : 0"
       inkscape:vp_x="0 : 0.5 : 1"
       sodipodi:type="inkscape:persp3d" />
    <inkscape:perspective
       id="perspective6243"
       inkscape:persp3d-origin="0.5 : 0.33333333 : 1"
       inkscape:vp_z="1 : 0.5 : 1"
       inkscape:vp_y="0 : 1000 : 0"
       inkscape:vp_x="0 : 0.5 : 1"
       sodipodi:type="inkscape:persp3d" />
  </defs>
  <g
     id="g1327">
    <path
       d="M 66.275,1.768 C 24.94,1.768 1.704,23.139 1.704,66.804 L 1.704,516.927 C 1.704,557.771 22.599,579.156 63.896,579.156 L 515.92,579.156 C 557.227,579.156 578.149,558.841 578.149,516.927 L 578.149,66.804 C 578.149,24.203 557.227,1.768 514.628,1.768 C 514.624,1.768 66.133,1.625 66.275,1.768 z"
       style="fill:#111111;stroke:#eeeeee;stroke-width:3.40799999"
       id="path1329" />
  </g>
  <path
     style="font-size:medium;font-style:normal;font-variant:normal;font-weight:normal;font-stretch:normal;text-indent:0;text-align:start;text-decoration:none;line-height:normal;letter-spacing:normal;word-spacing:normal;text-transform:none;direction:ltr;block-progression:tb;writing-mode:lr-tb;text-anchor:start;baseline-shift:baseline;color:#000000;fill:#ffffff;fill-opacity:1;stroke:none;stroke-width:37;marker:none;visibility:visible;display:inline;overflow:visible;enable-background:accumulate;font-family:Sans;-inkscape-font-specification:Sans"
     d="m 115,167.65625 c -1.59106,0.004 -3.18144,0.21493 -4.71875,0.625 -10.61063,2.80491 -19.703844,3.85364 -28.65625,12.53125 -8.952406,8.67761 -10.821275,18.49888 -13.90625,31.40625 -0.334939,1.41127 -0.503144,2.86203 -0.5,4.3125 l 0,192.03125 c -0.06911,4.88689 1.893661,9.77134 5.325039,13.25159 3.431378,3.48024 8.287581,5.51189 13.174961,5.51189 4.88738,0 9.743583,-2.03165 13.174961,-5.51189 3.431379,-3.48025 5.394149,-8.3647 5.325039,-13.25159 l 0,-189.46875 c 1.70018,-6.63413 3.01791,-10.39606 3.34375,-11.40625 0.86607,-0.20832 4.36963,-1.42345 10.09375,-3.03125 l 235.59375,0 c 9.91671,2.75685 12.85656,4.60151 13.5625,5.34375 0.75923,0.79827 2.38917,1.03246 3.4438,5.40145 26.1297,0.24523 26.15235,0.0116 37.96245,0.35102 -3.55652,-11.06768 -6.1779,-22.37264 -14.59375,-31.22122 -8.41585,-8.84858 -19.25612,-12.66128 -33.0625,-16.28125 -1.52861,-0.39689 -3.10821,-0.59698 -4.6875,-0.59375 z M 372.09375,306.25 l 0,106.65625 c -0.0691,4.88689 1.89366,9.77134 5.32504,13.25159 3.43138,3.48024 8.28758,5.51189 13.17496,5.51189 4.88738,0 9.74358,-2.03165 13.17496,-5.51189 3.43138,-3.48025 5.39415,-8.3647 5.32504,-13.25159 l 0,-106.65625 c -19.4957,0.40855 -16.27092,0.15962 -37,0 z"
     id="path3002"
     inkscape:connector-curvature="0"
     sodipodi:nodetypes="ccscccssscccccsccscccccsssccc" />
  <path
     style="fill:none;stroke:#ffffff;stroke-width:37;stroke-linecap:round;stroke-linejoin:round;stroke-miterlimit:4;stroke-opacity:1;stroke-dasharray:none"
     d="m 215.81446,483.43188 0,-192.04122 c 5.9782,-25.01243 7.66272,-24.66108 29.29443,-30.3794 l 240.86526,0 c 25.68597,6.73475 27.66696,11.6878 34.71932,33.63434 l 0,193.1262"
     id="path3002-9"
     inkscape:connector-curvature="0"
     sodipodi:nodetypes="cccccc" />
</svg>

<svg width="580" height="580" viewBox="0 0 580 580" fill="none" xmlns="http://www.w3.org/2000/svg">
<g clip-path="url(#clip0)">
<path d="M66.2751 1.76799C24.9401 1.76799 1.7041 23.139 1.7041 66.804V516.927C1.7041 557.771 22.5991 579.156 63.8961 579.156H515.92C557.227 579.156 578.149 558.841 578.149 516.927V66.804C578.149 24.203 557.227 1.76799 514.628 1.76799C514.624 1.76799 66.1331 1.62499 66.2751 1.76799Z" fill="#111111" stroke="#EEEEEE" stroke-width="3.408"/>
<path d="M115 167.656C113.409 167.66 111.818 167.871 110.281 168.281C99.6704 171.086 90.5772 172.135 81.6248 180.812C72.6724 189.49 70.8035 199.311 67.7186 212.219C67.3836 213.63 67.2154 215.081 67.2186 216.531V408.562C67.1495 413.449 69.1122 418.334 72.5436 421.814C75.975 425.294 80.8312 427.326 85.7186 427.326C90.6059 427.326 95.4621 425.294 98.8935 421.814C102.325 418.334 104.288 413.449 104.219 408.562V219.094C105.919 212.46 107.236 208.698 107.562 207.687C108.428 207.479 111.932 206.264 117.656 204.656H353.25C363.167 207.413 366.106 209.258 366.812 210C367.572 210.798 369.201 211.032 370.256 215.401C396.386 215.647 396.408 215.413 408.219 215.752C404.662 204.685 402.041 193.38 393.625 184.531C385.209 175.683 374.369 171.87 360.562 168.25C359.034 167.853 357.454 167.653 355.875 167.656H115ZM372.094 306.25V412.906C372.024 417.793 373.987 422.678 377.419 426.158C380.85 429.638 385.706 431.67 390.594 431.67C395.481 431.67 400.337 429.638 403.769 426.158C407.2 422.678 409.163 417.793 409.094 412.906V306.25C389.598 306.659 392.823 306.41 372.094 306.25Z" fill="white"/>
<path d="M215.814 483.432V291.391C221.793 266.378 223.477 266.73 245.109 261.011H485.974C511.66 267.746 513.641 272.699 520.693 294.646V487.772" stroke="white" stroke-width="37" stroke-linecap="round" stroke-linejoin="round"/>
</g>
<defs>
<clipPath id="clip0">
<path d="M0 0H580V580H0V0Z" fill="white"/>
</clipPath>
</defs>
</svg>
